X: 41244
T: Trumpet, The
R: hornpipe
M: 4/4
K: Gmajor
|:(3ddd d2 (3ddd d2|efgf edcB|cded cBAG|FGAG FDEF|
(3GGG G2 (3=FFF F2|(3EEE E2 (3_EEE E2|DGBe dcBA|1 G2B2 G2Bc:|2 G2B2 G4||

